src/assets/bold/lm-lock-open-bold.svg

<svg width="24" height="24" viewBox="0 0 24 24" fill="none" xmlns="http://www.w3.org/2000/svg" fill="currentColor">
<path fill-rule="evenodd" clip-rule="evenodd" d="M10.7281 5.17794C11.1809 4.72511 11.7951 4.47071 12.4355 4.47071C13.0759 4.47071 13.6901 4.72511 14.1429 5.17794C14.5958 5.63077 14.8502 6.24495 14.8502 6.88535C14.8502 7.29148 15.1794 7.62071 15.5855 7.62071C15.9916 7.62071 16.3209 7.29148 16.3209 6.88535C16.3209 5.85489 15.9115 4.86664 15.1829 4.13799C14.4542 3.40935 13.466 3 12.4355 3C11.4051 3 10.4168 3.40935 9.68816 4.13799C8.95952 4.86664 8.55017 5.85489 8.55017 6.88535V9.30005H5.43535C4.64263 9.30005 4 9.94268 4 10.7354V20.5354C4 21.3281 4.64263 21.9708 5.43535 21.9708H19.4354C20.2281 21.9708 20.8707 21.3281 20.8707 20.5354V10.7354C20.8707 9.94268 20.2281 9.30005 19.4354 9.30005H10.0209V6.88535C10.0209 6.24495 10.2753 5.63077 10.7281 5.17794ZM5.47071 20.5V10.7708H19.4V20.5H5.47071ZM12.4359 16.6857C13.0158 16.6857 13.4859 16.2156 13.4859 15.6357C13.4859 15.0558 13.0158 14.5857 12.4359 14.5857C11.856 14.5857 11.3859 15.0558 11.3859 15.6357C11.3859 16.2156 11.856 16.6857 12.4359 16.6857Z" fill="black"/>
</svg>

<svg xmlns="http://www.w3.org/2000/svg" width="24" height="24" fill="currentColor" viewBox="0 0 24 24">
  <path fill-rule="evenodd" d="M10.728 5.178a2.415 2.415 0 0 1 4.122 1.707.735.735 0 1 0 1.47 0 3.886 3.886 0 0 0-7.77 0V9.3H5.435C4.643 9.3 4 9.943 4 10.735v9.8c0 .793.643 1.436 1.435 1.436h14c.793 0 1.436-.643 1.436-1.436v-9.8c0-.792-.643-1.435-1.436-1.435h-9.414V6.885c0-.64.254-1.254.707-1.707ZM5.471 20.5v-9.73H19.4v9.73H5.47Zm6.965-3.814a1.05 1.05 0 1 0 0-2.1 1.05 1.05 0 0 0 0 2.1Z" clip-rule="evenodd"/>
</svg>
